X: 4358
T: OPENING CHORUS. (La Sonnambula.)
R: air, jig
%R: air, jig
B: James Kerr "Merry Melodies" v.4 p.38 #358
Z: 2016 John Chambers <jc:trillian.mit.edu>
M: 6/8
L: 1/8
K: G
"_p 2nd f"de |\
dcB d2e | dcB d2c |\
B2B BAB | cAA Ade |\
dcB d2e | dcB d2c |\
B2B cAA |[1 AGG G :|[2 AGG G2 ||
H|: !p!D |\
DFA c2e | edc B2d |\
dcB A2c | cBA G2D |\
DFA c2e | edc B2d |\
dcB A2B | G3- G2 :|
|: !f!d |\
d2d d2d | d3 c2B |\
A2A ABA | AGE D2d |\
d2d d2d | d3 c2B |\
A2A ABA |[1 G3- G2 :|[2 G3- G |]

%%sep 1 1 500
%%sep 1 1 500

